;FLAVOR:Marlin
;TIME:3934
;Filament used: 8.11449m
;Layer height: 0.28
;MINX:86.7
;MINY:73.45
;MINZ:0.12
;MAXX:148.3
;MAXY:161.55
;MAXZ:30.92
;LINEARADVANCEPROCESSED
;Generated with Cura_SteamEngine 4.6.2
M140 S40
M105
M190 S40
M104 S195
M105
M109 S195
M82 ;absolute extrusion mode
; Ender 3 Custom Start G-code
G92 E0 ; Reset Extruder
G28 ; Home all axes
G1 Z2.0 F3000 ; Move Z Axis up little to prevent scratching of Heat Bed
G1 X0.1 Y20 Z0.3 F5000.0 ; Move to start position
G1 X0.1 Y200.0 Z0.3 F1500.0 E15 ; Draw the first line
G1 X0.4 Y200.0 Z0.3 F5000.0 ; Move to side a little
G1 X0.4 Y20 Z0.3 F1500.0 E30 ; Draw the second line
G92 E0 ; Reset Extruder
G1 Z2.0 F3000 ; Move Z Axis up little to prevent scratching of Heat Bed
G1 X5 Y20 Z0.3 F5000.0 ; Move over to prevent blob squish
G92 E0
G92 E0
;LAYER_COUNT:111
M900 K0.000000 T0 ;added by LinearAdvanceSettingPlugin
;LAYER:0
M107
M204 S500
M205 X20 Y20
G0 F9000 X91.921 Y76.17 Z0.12
M204 S700
;TYPE:SKIRT
G1 F3600 X92.465 Y75.598 E0.01134
G1 X93.064 Y75.083 E0.02269
G1 X93.712 Y74.632 E0.03404
G1 X94.402 Y74.249 E0.04538
G1 X95.128 Y73.937 E0.05673
G1 X95.881 Y73.7 E0.06807
G1 X96.654 Y73.541 E0.07941
G1 X97.44 Y73.46 E0.09076
G1 X97.84 Y73.45 E0.09651
G1 X137.16 Y73.45 E0.66148
G1 X137.949 Y73.49 E0.67283
G1 X138.729 Y73.609 E0.68417
G1 X139.494 Y73.807 E0.69552
G1 X140.234 Y74.081 E0.70686
G1 X140.943 Y74.429 E0.71821
G1 X141.614 Y74.847 E0.72957
G1 X142.238 Y75.33 E0.7409
G1 X142.811 Y75.873 E0.75225
G1 X143.326 Y76.472 E0.7636
G1 X143.777 Y77.12 E0.77494
G1 X144.161 Y77.811 E0.7863
G1 X144.473 Y78.536 E0.79764
G1 X144.71 Y79.289 E0.80898
G1 X144.869 Y80.063 E0.82034
G1 X144.95 Y80.848 E0.83167
G1 X144.96 Y81.245 E0.83738
G1 X144.961 Y82.745 E0.85893
G1 X144.961 Y135.352 E1.61481
G1 X145.578 Y135.83 E1.62603
G1 X146.151 Y136.373 E1.63737
G1 X146.666 Y136.972 E1.64872
G1 X147.117 Y137.62 E1.66006
G1 X147.501 Y138.311 E1.67142
G1 X147.813 Y139.036 E1.68276
G1 X148.05 Y139.789 E1.6941
G1 X148.209 Y140.563 E1.70546
G1 X148.29 Y141.348 E1.7168
G1 X148.3 Y141.75 E1.72257
G1 X148.3 Y144.743 E1.76558
G1 X148.26 Y145.532 E1.77693
G1 X148.141 Y146.312 E1.78827
G1 X147.943 Y147.077 E1.79962
G1 X147.669 Y147.817 E1.81096
G1 X147.321 Y148.526 E1.82231
G1 X146.903 Y149.197 E1.83367
G1 X146.42 Y149.821 E1.845
G1 X145.877 Y150.394 E1.85635
G1 X145.278 Y150.909 E1.8677
G1 X144.63 Y151.36 E1.87904
G1 X143.939 Y151.744 E1.8904
G1 X143.214 Y152.056 E1.90174
G1 X142.461 Y152.293 E1.91308
G1 X141.687 Y152.452 E1.92444
G1 X140.76 Y152.539 E1.93781
G1 X140.291 Y152.55 E1.94455
G1 X134.298 Y152.55 E2.03066
G1 X134.3 Y152.632 E2.03184
G1 X134.3 Y153.75 E2.04791
G1 X134.26 Y154.539 E2.05926
G1 X134.141 Y155.319 E2.0706
G1 X133.943 Y156.084 E2.08195
G1 X133.669 Y156.824 E2.09329
G1 X133.321 Y157.533 E2.10464
G1 X132.903 Y158.204 E2.11599
G1 X132.42 Y158.828 E2.12733
G1 X131.877 Y159.401 E2.13867
G1 X131.278 Y159.916 E2.15003
G1 X130.63 Y160.367 E2.16137
G1 X129.939 Y160.751 E2.17273
G1 X129.214 Y161.063 E2.18407
G1 X128.461 Y161.3 E2.19541
G1 X127.687 Y161.459 E2.20676
G1 X126.902 Y161.54 E2.2181
G1 X126.5 Y161.55 E2.22388
G1 X105.5 Y161.55 E2.52562
G1 X104.711 Y161.51 E2.53697
G1 X103.931 Y161.391 E2.54831
G1 X103.166 Y161.193 E2.55966
G1 X102.426 Y160.919 E2.571
G1 X101.717 Y160.571 E2.58235
G1 X101.046 Y160.153 E2.5937
G1 X100.422 Y159.67 E2.60504
G1 X99.849 Y159.127 E2.61639
G1 X99.334 Y158.528 E2.62774
G1 X98.883 Y157.88 E2.63908
G1 X98.499 Y157.189 E2.65044
G1 X98.187 Y156.464 E2.66178
G1 X97.95 Y155.711 E2.67312
G1 X97.791 Y154.937 E2.68447
G1 X97.71 Y154.152 E2.69581
G1 X97.7 Y153.75 E2.70159
G1 X97.704 Y152.55 E2.71883
G1 X94.5 Y152.55 E2.76487
G1 X93.711 Y152.51 E2.77622
G1 X92.931 Y152.391 E2.78756
G1 X92.166 Y152.193 E2.79891
G1 X91.426 Y151.919 E2.81025
G1 X90.717 Y151.571 E2.8216
G1 X90.046 Y151.153 E2.83296
G1 X89.422 Y150.67 E2.8443
G1 X88.849 Y150.127 E2.85564
G1 X88.334 Y149.528 E2.86699
G1 X87.883 Y148.88 E2.87833
G1 X87.499 Y148.189 E2.88969
G1 X87.187 Y147.464 E2.90103
G1 X86.95 Y146.711 E2.91237
G1 X86.791 Y145.937 E2.92373
G1 X86.71 Y145.152 E2.93507
G1 X86.7 Y144.75 E2.94084
G1 X86.7 Y141.75 E2.98395
G1 X86.74 Y140.961 E2.9953
G1 X86.859 Y140.181 E3.00664
G1 X87.057 Y139.416 E3.01799
G1 X87.331 Y138.676 E3.02933
G1 X87.679 Y137.967 E3.04068
G1 X88.097 Y137.296 E3.05204
G1 X88.58 Y136.672 E3.06337
G1 X89.123 Y136.099 E3.07472
G1 X89.722 Y135.584 E3.08607
G1 X90.039 Y135.363 E3.09162
G1 X90.04 Y81.248 E3.86916
G1 X90.08 Y80.46 E3.8805
G1 X90.2 Y79.679 E3.89186
G1 X90.398 Y78.915 E3.9032
G1 X90.672 Y78.174 E3.91455
G1 X91.02 Y77.465 E3.92589
G1 X91.438 Y76.795 E3.93724
G1 X91.921 Y76.17 E3.94859
M204 S500
G0 F9000 X92.316 Y76.325
M204 S700
G1 F3600 X92.857 Y75.779 E3.95963
G1 X93.452 Y75.291 E3.97069
G1 X94.095 Y74.868 E3.98175
G1 X94.777 Y74.514 E3.99279
G1 X95.493 Y74.232 E4.00385
G1 X96.234 Y74.026 E4.0149
G1 X96.993 Y73.899 E4.02596
G1 X97.84 Y73.85 E4.03815
G1 X137.16 Y73.85 E4.60311
G1 X137.928 Y73.89 E4.61416
G1 X138.688 Y74.009 E4.62521
G1 X139.431 Y74.207 E4.63626
G1 X140.15 Y74.481 E4.64732
G1 X140.836 Y74.828 E4.65836
G1 X141.483 Y75.244 E4.66942
G1 X142.083 Y75.725 E4.68047
G1 X142.63 Y76.266 E4.69152
G1 X143.118 Y76.861 E4.70258
G1 X143.541 Y77.503 E4.71362
G1 X143.896 Y78.186 E4.72468
G1 X144.177 Y78.901 E4.73572
G1 X144.383 Y79.643 E4.74679
G1 X144.511 Y80.401 E4.75783
G1 X144.56 Y81.245 E4.76998
G1 X144.561 Y82.745 E4.79153
G1 X144.561 Y135.576 E5.55063
G1 X144.823 Y135.744 E5.5551
G1 X145.423 Y136.225 E5.56615
G1 X145.97 Y136.766 E5.5772
G1 X146.458 Y137.361 E5.58826
G1 X146.881 Y138.003 E5.59931
G1 X147.236 Y138.686 E5.61037
G1 X147.517 Y139.401 E5.6214
G1 X147.723 Y140.143 E5.63247
G1 X147.851 Y140.901 E5.64351
G1 X147.9 Y141.75 E5.65573
G1 X147.9 Y144.743 E5.69874
G1 X147.86 Y145.511 E5.70979
G1 X147.741 Y146.271 E5.72084
G1 X147.543 Y147.014 E5.73189
G1 X147.269 Y147.733 E5.74294
G1 X146.922 Y148.419 E5.75399
G1 X146.506 Y149.066 E5.76504
G1 X146.025 Y149.666 E5.77609
G1 X145.484 Y150.213 E5.78715
G1 X144.889 Y150.701 E5.7982
G1 X144.247 Y151.124 E5.80925
G1 X143.564 Y151.479 E5.82031
G1 X142.849 Y151.76 E5.83135
G1 X142.107 Y151.966 E5.84241
G1 X141.349 Y152.094 E5.85346
G1 X140.747 Y152.139 E5.86213
G1 X140.291 Y152.15 E5.86869
G1 X133.872 Y152.15 E5.96092
G1 X133.9 Y152.632 E5.96785
G1 X133.9 Y153.75 E5.98392
G1 X133.86 Y154.518 E5.99497
G1 X133.741 Y155.278 E6.00602
G1 X133.543 Y156.021 E6.01707
G1 X133.269 Y156.74 E6.02812
G1 X132.922 Y157.426 E6.03917
G1 X132.506 Y158.073 E6.05022
G1 X132.025 Y158.673 E6.06127
G1 X131.484 Y159.22 E6.07233
G1 X130.889 Y159.708 E6.08338
G1 X130.247 Y160.131 E6.09443
G1 X129.564 Y160.486 E6.10549
G1 X128.849 Y160.767 E6.11653
G1 X128.107 Y160.973 E6.12759
G1 X127.349 Y161.101 E6.13864
G1 X126.5 Y161.15 E6.15086
G1 X105.5 Y161.15 E6.45259
G1 X104.732 Y161.11 E6.46364
G1 X103.972 Y160.991 E6.4747
G1 X103.229 Y160.793 E6.48574
G1 X102.51 Y160.519 E6.4968
G1 X101.824 Y160.172 E6.50785
G1 X101.177 Y159.756 E6.5189
G1 X100.577 Y159.275 E6.52995
G1 X100.03 Y158.734 E6.541
G1 X99.542 Y158.139 E6.55206
G1 X99.119 Y157.497 E6.56311
G1 X98.764 Y156.814 E6.57417
G1 X98.483 Y156.099 E6.5852
G1 X98.277 Y155.357 E6.59627
G1 X98.149 Y154.599 E6.60731
G1 X98.1 Y153.75 E6.61953
G1 X98.1 Y152.632 E6.6356
G1 X98.125 Y152.15 E6.64253
G1 X94.5 Y152.15 E6.69462
G1 X93.732 Y152.11 E6.70567
G1 X92.972 Y151.991 E6.71672
G1 X92.229 Y151.793 E6.72777
G1 X91.51 Y151.519 E6.73882
G1 X90.824 Y151.172 E6.74987
G1 X90.177 Y150.756 E6.76092
G1 X89.577 Y150.275 E6.77197
G1 X89.03 Y149.734 E6.78303
G1 X88.542 Y149.139 E6.79408
G1 X88.119 Y148.497 E6.80513
G1 X87.764 Y147.814 E6.81619
G1 X87.483 Y147.099 E6.82723
G1 X87.277 Y146.357 E6.83829
G1 X87.149 Y145.599 E6.84934
G1 X87.1 Y144.75 E6.86156
G1 X87.1 Y141.75 E6.90466
G1 X87.14 Y140.982 E6.91571
G1 X87.259 Y140.222 E6.92676
G1 X87.457 Y139.479 E6.93781
G1 X87.731 Y138.76 E6.94887
G1 X88.078 Y138.074 E6.95991
G1 X88.494 Y137.427 E6.97097
G1 X88.975 Y136.827 E6.98202
G1 X89.516 Y136.28 E6.99307
G1 X90.111 Y135.792 E7.00413
G1 X90.439 Y135.576 E7.00977
G1 X90.44 Y81.248 E7.79037
G1 X90.48 Y80.48 E7.80142
G1 X90.6 Y79.72 E7.81248
G1 X90.798 Y78.977 E7.82353
G1 X91.072 Y78.258 E7.83458
G1 X91.419 Y77.572 E7.84563
G1 X91.835 Y76.925 E7.85668
G1 X92.316 Y76.325 E7.86773
M204 S500
G0 F9000 X92.712 Y76.485
M204 S700
G1 F3600 X93.249 Y75.965 E7.87847
G1 X93.84 Y75.506 E7.88922
G1 X94.475 Y75.112 E7.89996
G1 X95.15 Y74.788 E7.91072
G1 X95.855 Y74.537 E7.92147
G1 X96.582 Y74.364 E7.93221
G1 X97.324 Y74.269 E7.94296
G1 X97.84 Y74.25 E7.95038
G1 X137.16 Y74.25 E8.51534
G1 X137.907 Y74.29 E8.52609
G1 X138.645 Y74.409 E8.53683
G1 X139.367 Y74.607 E8.54759
G1 X140.063 Y74.88 E8.55833
G1 X140.726 Y75.227 E8.56908
G1 X141.349 Y75.642 E8.57984
G1 X141.923 Y76.121 E8.59058
G1 X142.444 Y76.658 E8.60133
G1 X142.903 Y77.248 E8.61207
G1 X143.298 Y77.884 E8.62283
G1 X143.622 Y78.558 E8.63357
G1 X143.872 Y79.263 E8.64432
G1 X144.046 Y79.991 E8.65508
G1 X144.141 Y80.733 E8.66582
G1 X144.16 Y81.245 E8.67319
G1 X144.161 Y82.745 E8.69474
G1 X144.161 Y135.79 E9.45691
G1 X144.689 Y136.142 E9.46603
G1 X145.263 Y136.621 E9.47677
G1 X145.784 Y137.158 E9.48752
G1 X146.243 Y137.748 E9.49826
G1 X146.638 Y138.384 E9.50902
G1 X146.962 Y139.058 E9.51976
G1 X147.212 Y139.763 E9.53051
G1 X147.386 Y140.491 E9.54126
G1 X147.481 Y141.233 E9.55201
G1 X147.5 Y141.75 E9.55945
G1 X147.5 Y144.743 E9.60245
G1 X147.46 Y145.49 E9.6132
G1 X147.341 Y146.228 E9.62394
G1 X147.143 Y146.95 E9.6347
G1 X146.87 Y147.646 E9.64544
G1 X146.523 Y148.309 E9.65619
G1 X146.108 Y148.932 E9.66695
G1 X145.629 Y149.506 E9.67769
G1 X145.092 Y150.027 E9.68844
G1 X144.502 Y150.486 E9.69918
G1 X143.866 Y150.881 E9.70994
G1 X143.192 Y151.205 E9.72068
G1 X142.487 Y151.455 E9.73143
G1 X141.759 Y151.629 E9.74219
G1 X140.733 Y151.739 E9.75701
G1 X140.291 Y151.75 E9.76336
G1 X133.434 Y151.75 E9.86189
G1 X133.481 Y152.115 E9.86718
G1 X133.5 Y152.632 E9.87461
G1 X133.5 Y153.75 E9.89067
G1 X133.46 Y154.497 E9.90142
G1 X133.341 Y155.235 E9.91216
G1 X133.143 Y155.957 E9.92292
G1 X132.87 Y156.653 E9.93366
G1 X132.523 Y157.316 E9.94441
G1 X132.108 Y157.939 E9.95517
G1 X131.629 Y158.513 E9.96591
G1 X131.092 Y159.034 E9.97666
G1 X130.502 Y159.493 E9.9874
G1 X129.866 Y159.888 E9.99816
G1 X129.192 Y160.212 E10.00891
G1 X128.487 Y160.462 E10.01965
G1 X127.759 Y160.636 E10.03041
G1 X127.017 Y160.731 E10.04116
G1 X126.5 Y160.75 E10.04859
G1 X105.5 Y160.75 E10.35033
G1 X104.753 Y160.71 E10.36107
G1 X104.015 Y160.591 E10.37182
G1 X103.293 Y160.393 E10.38257
G1 X102.597 Y160.12 E10.39331
G1 X101.934 Y159.773 E10.40407
G1 X101.311 Y159.358 E10.41482
G1 X100.737 Y158.879 E10.42556
G1 X100.216 Y158.342 E10.43631
G1 X99.757 Y157.752 E10.44706
G1 X99.362 Y157.116 E10.45781
G1 X99.038 Y156.442 E10.46856
G1 X98.788 Y155.737 E10.47931
G1 X98.614 Y155.009 E10.49006
G1 X98.519 Y154.267 E10.50081
G1 X98.5 Y153.75 E10.50824
G1 X98.5 Y152.632 E10.52431
G1 X98.54 Y151.885 E10.53505
G1 X98.562 Y151.75 E10.53702
G1 X94.5 Y151.75 E10.59538
G1 X93.753 Y151.71 E10.60613
G1 X93.015 Y151.591 E10.61687
G1 X92.293 Y151.393 E10.62763
G1 X91.597 Y151.12 E10.63837
G1 X90.934 Y150.773 E10.64912
G1 X90.311 Y150.358 E10.65988
G1 X89.737 Y149.879 E10.67062
G1 X89.216 Y149.342 E10.68137
G1 X88.757 Y148.752 E10.69211
G1 X88.362 Y148.116 E10.70287
G1 X88.038 Y147.442 E10.71362
G1 X87.788 Y146.737 E10.72436
G1 X87.614 Y146.009 E10.73512
G1 X87.519 Y145.267 E10.74587
G1 X87.5 Y144.75 E10.7533
G1 X87.5 Y141.75 E10.79641
G1 X87.54 Y141.003 E10.80715
G1 X87.659 Y140.265 E10.81789
G1 X87.857 Y139.543 E10.82865
G1 X88.13 Y138.847 E10.83939
G1 X88.477 Y138.184 E10.85015
G1 X88.892 Y137.561 E10.8609
G1 X89.371 Y136.987 E10.87164
G1 X89.908 Y136.466 E10.88239
G1 X90.498 Y136.007 E10.89313
G1 X90.839 Y135.795 E10.8989
G1 X90.84 Y81.248 E11.68266
G1 X90.88 Y80.501 E11.6934
G1 X91 Y79.763 E11.70415
G1 X91.197 Y79.042 E11.71489
G1 X91.471 Y78.345 E11.72565
G1 X91.817 Y77.682 E11.73639
G1 X92.233 Y77.06 E11.74714
G1 X92.712 Y76.485 E11.7579
M204 S500
G0 F9000 X92.63 Y77.199
M204 S700
G1 F3600 X93.106 Y76.651 E11.76833
G1 X93.64 Y76.158 E11.77877
G1 X94.225 Y75.728 E11.7892
G1 X94.854 Y75.364 E11.79964
G1 X95.519 Y75.072 E11.81008
G1 X96.212 Y74.854 E11.82052
G1 X96.925 Y74.714 E11.83096
G1 X97.84 Y74.65 E11.84414
G1 X137.16 Y74.65 E12.4091
G1 X137.885 Y74.69 E12.41953
G1 X138.602 Y74.809 E12.42998
G1 X139.301 Y75.007 E12.44042
G1 X139.974 Y75.28 E12.45085
G1 X140.613 Y75.625 E12.46129
G1 X141.21 Y76.039 E12.47172
G1 X141.758 Y76.515 E12.48215
G1 X142.251 Y77.049 E12.4926
G1 X142.681 Y77.634 E12.50303
G1 X143.045 Y78.263 E12.51347
G1 X143.338 Y78.928 E12.52391
G1 X143.556 Y79.621 E12.53435
G1 X143.696 Y80.333 E12.54478
G1 X143.76 Y81.246 E12.55793
G1 X143.761 Y82.746 E12.57948
G1 X143.761 Y136.021 E13.34495
G1 X143.953 Y136.125 E13.34809
G1 X144.55 Y136.539 E13.35853
G1 X145.098 Y137.015 E13.36896
G1 X145.591 Y137.549 E13.3794
G1 X146.021 Y138.134 E13.38983
G1 X146.385 Y138.763 E13.40028
G1 X146.678 Y139.428 E13.41072
G1 X146.896 Y140.121 E13.42116
G1 X147.036 Y140.833 E13.43158
G1 X147.1 Y141.75 E13.44479
G1 X147.1 Y144.743 E13.48779
G1 X147.06 Y145.468 E13.49823
G1 X146.941 Y146.185 E13.50867
G1 X146.743 Y146.884 E13.51911
G1 X146.47 Y147.557 E13.52954
G1 X146.125 Y148.196 E13.53998
G1 X145.711 Y148.793 E13.55042
G1 X145.235 Y149.341 E13.56085
G1 X144.701 Y149.834 E13.57129
G1 X144.116 Y150.264 E13.58172
G1 X143.487 Y150.628 E13.59216
G1 X142.822 Y150.921 E13.6026
G1 X142.129 Y151.139 E13.61304
G1 X141.417 Y151.279 E13.62347
G1 X140.72 Y151.339 E13.63352
G1 X140.29 Y151.35 E13.6397
G1 X132.964 Y151.351 E13.74496
G1 X133.036 Y151.715 E13.7503
G1 X133.1 Y152.632 E13.7635
G1 X133.1 Y153.75 E13.77957
G1 X133.06 Y154.475 E13.79
G1 X132.941 Y155.192 E13.80044
G1 X132.743 Y155.891 E13.81088
G1 X132.47 Y156.564 E13.82132
G1 X132.125 Y157.203 E13.83175
G1 X131.711 Y157.8 E13.84219
G1 X131.235 Y158.348 E13.85262
G1 X130.701 Y158.841 E13.86306
G1 X130.116 Y159.271 E13.87349
G1 X129.487 Y159.635 E13.88394
G1 X128.822 Y159.928 E13.89438
G1 X128.129 Y160.146 E13.90482
G1 X127.417 Y160.286 E13.91524
G1 X126.5 Y160.35 E13.92845
G1 X105.5 Y160.35 E14.23019
G1 X104.775 Y160.31 E14.24062
G1 X104.058 Y160.191 E14.25106
G1 X103.359 Y159.993 E14.2615
G1 X102.686 Y159.72 E14.27194
G1 X102.047 Y159.375 E14.28237
G1 X101.45 Y158.961 E14.29281
G1 X100.902 Y158.485 E14.30324
G1 X100.409 Y157.951 E14.31368
G1 X99.979 Y157.366 E14.32411
G1 X99.615 Y156.737 E14.33455
G1 X99.322 Y156.072 E14.345
G1 X99.104 Y155.379 E14.35543
G1 X98.964 Y154.667 E14.36586
G1 X98.9 Y153.75 E14.37907
G1 X98.9 Y152.632 E14.39513
G1 X98.94 Y151.907 E14.40556
G1 X99.032 Y151.35 E14.41368
G1 X94.5 Y151.35 E14.47879
G1 X93.775 Y151.31 E14.48923
G1 X93.058 Y151.191 E14.49967
G1 X92.359 Y150.993 E14.51011
G1 X91.686 Y150.72 E14.52054
G1 X91.047 Y150.375 E14.53098
G1 X90.45 Y149.961 E14.54142
G1 X89.902 Y149.485 E14.55185
G1 X89.409 Y148.951 E14.56229
G1 X88.979 Y148.366 E14.57272
G1 X88.615 Y147.737 E14.58316
G1 X88.322 Y147.072 E14.5936
G1 X88.104 Y146.379 E14.60404
G1 X87.964 Y145.667 E14.61447
G1 X87.9 Y144.75 E14.62768
G1 X87.9 Y141.75 E14.67078
G1 X87.94 Y141.025 E14.68121
G1 X88.059 Y140.308 E14.69166
G1 X88.257 Y139.609 E14.7021
G1 X88.53 Y138.936 E14.71253
G1 X88.875 Y138.297 E14.72297
G1 X89.289 Y137.7 E14.7334
G1 X89.765 Y137.152 E14.74383
G1 X90.299 Y136.659 E14.75428
G1 X90.884 Y136.229 E14.76471
G1 X91.239 Y136.024 E14.7706
G1 X91.24 Y81.249 E15.55763
G1 X91.28 Y80.523 E15.56807
G1 X91.4 Y79.807 E15.5785
G1 X91.597 Y79.108 E15.58894
G1 X91.871 Y78.435 E15.59938
G1 X92.216 Y77.796 E15.60981
G1 X92.63 Y77.199 E15.62025
M204 S500
G0 F9000 X93.026 Y77.342
M204 S700
G1 F3600 X93.5 Y76.822 E15.63036
G1 X94.03 Y76.359 E15.64047
G1 X94.609 Y75.958 E15.65059
G1 X95.23 Y75.626 E15.66071
G1 X95.884 Y75.366 E15.67082
G1 X96.564 Y75.183 E15.68094
G1 X97.26 Y75.077 E15.69106
G1 X97.84 Y75.05 E15.6994
G1 X137.16 Y75.05 E16.26437
G1 X137.863 Y75.09 E16.27448
G1 X138.557 Y75.209 E16.2846
G1 X139.232 Y75.407 E16.29471
G1 X139.881 Y75.679 E16.30482
G1 X140.495 Y76.024 E16.31494
