;FLAVOR:Marlin
;TIME:9681
;Filament used: 11.6016m
;Layer height: 0.24
;MINX:69.65
;MINY:58.45
;MINZ:0.12
;MAXX:165.25
;MAXY:137.55
;MAXZ:39
;LINEARADVANCEPROCESSED
;Generated with Cura_SteamEngine 4.6.2
M140 S50
M105
M190 S50
M104 S190
M105
M109 S190
M82 ;absolute extrusion mode
; Ender 3 Custom Start G-code
G92 E0 ; Reset Extruder
G28 ; Home all axes
G1 Z2.0 F3000 ; Move Z Axis up little to prevent scratching of Heat Bed
G1 X0.1 Y20 Z0.3 F5000.0 ; Move to start position
G1 X0.1 Y200.0 Z0.3 F1500.0 E15 ; Draw the first line
G1 X0.4 Y200.0 Z0.3 F5000.0 ; Move to side a little
G1 X0.4 Y20 Z0.3 F1500.0 E30 ; Draw the second line
G92 E0 ; Reset Extruder
G1 Z2.0 F3000 ; Move Z Axis up little to prevent scratching of Heat Bed
G1 X5 Y20 Z0.3 F5000.0 ; Move over to prevent blob squish
G92 E0
G92 E0
;LAYER_COUNT:163
M900 K0.000000 T0 ;added by LinearAdvanceSettingPlugin
;LAYER:0
M107
G0 F9000 X71.53 Y61.289 Z0.12
;TYPE:SKIRT
G1 F3000 X71.935 Y60.852 E0.00951
G1 X72.052 Y60.735 E0.01215
G1 X72.638 Y60.205 E0.02477
G1 X73.274 Y59.738 E0.03736
G1 X73.954 Y59.337 E0.04997
G1 X74.672 Y59.007 E0.06258
G1 X75.419 Y58.752 E0.07518
G1 X76.188 Y58.573 E0.08779
G1 X76.972 Y58.473 E0.10041
G1 X77.567 Y58.45 E0.10991
G1 X157.333 Y58.45 E1.38337
G1 X158.122 Y58.49 E1.39598
G1 X158.902 Y58.609 E1.40858
G1 X159.667 Y58.807 E1.42119
G1 X160.407 Y59.081 E1.43379
G1 X161.116 Y59.429 E1.4464
G1 X161.787 Y59.847 E1.45902
G1 X162.411 Y60.33 E1.47162
G1 X162.984 Y60.873 E1.48422
G1 X163.499 Y61.472 E1.49683
G1 X163.95 Y62.12 E1.50944
G1 X164.334 Y62.811 E1.52206
G1 X164.646 Y63.536 E1.53466
G1 X164.883 Y64.289 E1.54726
G1 X165.042 Y65.063 E1.55988
G1 X165.133 Y66.236 E1.57866
G1 X165.25 Y129.619 E2.59056
G1 X165.211 Y130.407 E2.60316
G1 X165.093 Y131.188 E2.61577
G1 X164.897 Y131.953 E2.62838
G1 X164.624 Y132.694 E2.64098
G1 X164.278 Y133.404 E2.65359
G1 X163.862 Y134.075 E2.6662
G1 X163.38 Y134.7 E2.6788
G1 X162.965 Y135.148 E2.68855
G1 X162.848 Y135.265 E2.69119
G1 X162.262 Y135.795 E2.7038
G1 X161.626 Y136.262 E2.7164
G1 X160.946 Y136.663 E2.729
G1 X160.228 Y136.993 E2.74162
G1 X159.481 Y137.248 E2.75422
G1 X158.712 Y137.427 E2.76682
G1 X157.928 Y137.527 E2.77944
G1 X157.333 Y137.55 E2.78895
G1 X77.567 Y137.55 E4.0624
G1 X76.778 Y137.51 E4.07501
G1 X75.998 Y137.391 E4.08761
G1 X75.233 Y137.193 E4.10023
G1 X74.493 Y136.919 E4.11282
G1 X73.784 Y136.571 E4.12543
G1 X73.113 Y136.153 E4.13805
G1 X72.489 Y135.67 E4.15065
G1 X72.052 Y135.265 E4.16016
G1 X71.935 Y135.148 E4.16281
G1 X71.405 Y134.562 E4.17542
G1 X70.938 Y133.926 E4.18802
G1 X70.537 Y133.246 E4.20062
G1 X70.207 Y132.528 E4.21324
G1 X69.952 Y131.781 E4.22584
G1 X69.773 Y131.012 E4.23844
G1 X69.673 Y130.228 E4.25106
G1 X69.65 Y129.633 E4.26057
G1 X69.65 Y66.367 E5.2706
G1 X69.69 Y65.578 E5.28321
G1 X69.809 Y64.798 E5.29581
G1 X70.007 Y64.033 E5.30842
G1 X70.281 Y63.293 E5.32102
G1 X70.629 Y62.584 E5.33363
G1 X71.047 Y61.913 E5.34625
G1 X71.53 Y61.289 E5.35885
G0 F9000 X71.925 Y61.444
G1 F3000 X72.334 Y61.017 E5.36829
G1 X72.906 Y60.503 E5.38057
G1 X73.528 Y60.05 E5.39285
G1 X74.193 Y59.664 E5.40513
G1 X74.895 Y59.349 E5.41741
G1 X75.626 Y59.109 E5.42969
G1 X76.377 Y58.946 E5.44196
G1 X77.142 Y58.862 E5.45425
G1 X77.567 Y58.85 E5.46104
G1 X157.333 Y58.85 E6.73449
G1 X158.101 Y58.89 E6.74677
G1 X158.861 Y59.009 E6.75905
G1 X159.604 Y59.207 E6.77132
G1 X160.323 Y59.481 E6.78361
G1 X161.009 Y59.828 E6.79588
G1 X161.656 Y60.244 E6.80816
G1 X162.256 Y60.725 E6.82044
G1 X162.803 Y61.266 E6.83272
G1 X163.291 Y61.861 E6.84501
G1 X163.714 Y62.503 E6.85728
G1 X164.069 Y63.186 E6.86957
G1 X164.35 Y63.901 E6.88183
G1 X164.556 Y64.643 E6.89413
G1 X164.684 Y65.401 E6.9064
G1 X164.733 Y66.236 E6.91975
G1 X164.85 Y129.619 E7.93166
G1 X164.811 Y130.388 E7.94395
G1 X164.693 Y131.148 E7.95623
G1 X164.497 Y131.891 E7.9685
G1 X164.225 Y132.611 E7.98078
G1 X163.879 Y133.298 E7.99306
G1 X163.464 Y133.945 E8.00534
G1 X162.984 Y134.546 E8.01762
G1 X162.683 Y134.866 E8.02463
G1 X162.566 Y134.983 E8.02727
G1 X161.994 Y135.497 E8.03955
G1 X161.372 Y135.95 E8.05183
G1 X160.707 Y136.336 E8.06411
G1 X160.005 Y136.651 E8.07639
G1 X159.274 Y136.891 E8.08868
G1 X158.523 Y137.054 E8.10094
G1 X157.758 Y137.138 E8.11323
G1 X157.333 Y137.15 E8.12002
G1 X77.567 Y137.15 E9.39347
G1 X76.799 Y137.11 E9.40575
G1 X76.039 Y136.991 E9.41803
G1 X75.296 Y136.793 E9.43031
G1 X74.577 Y136.519 E9.44259
G1 X73.891 Y136.172 E9.45486
G1 X73.244 Y135.756 E9.46714
G1 X72.644 Y135.275 E9.47942
G1 X72.217 Y134.866 E9.48886
G1 X71.703 Y134.294 E9.50114
G1 X71.25 Y133.672 E9.51342
G1 X70.864 Y133.007 E9.5257
G1 X70.549 Y132.305 E9.53798
G1 X70.309 Y131.574 E9.55027
G1 X70.146 Y130.823 E9.56253
G1 X70.062 Y130.058 E9.57482
G1 X70.05 Y129.633 E9.58161
G1 X70.05 Y66.367 E10.59164
G1 X70.09 Y65.599 E10.60392
G1 X70.209 Y64.839 E10.6162
G1 X70.407 Y64.096 E10.62848
G1 X70.681 Y63.377 E10.64076
G1 X71.028 Y62.691 E10.65303
G1 X71.444 Y62.044 E10.66531
G1 X71.925 Y61.444 E10.67759
G0 F9000 X71.842 Y62.178
G1 F3000 X72.5 Y61.417 E10.69365
G1 X72.617 Y61.3 E10.69629
G1 X73.174 Y60.8 E10.70824
G1 X73.78 Y60.363 E10.72017
G1 X74.43 Y59.992 E10.73212
G1 X75.116 Y59.693 E10.74407
G1 X75.83 Y59.469 E10.75601
G1 X76.563 Y59.322 E10.76795
G1 X77.567 Y59.25 E10.78402
G1 X157.333 Y59.25 E12.05747
G1 X158.08 Y59.29 E12.06941
G1 X158.818 Y59.409 E12.08135
G1 X159.54 Y59.607 E12.0933
G1 X160.236 Y59.88 E12.10524
G1 X160.899 Y60.227 E12.11718
G1 X161.522 Y60.642 E12.12913
G1 X162.096 Y61.121 E12.14107
G1 X162.617 Y61.658 E12.15301
G1 X163.076 Y62.248 E12.16495
G1 X163.471 Y62.884 E12.1769
G1 X163.795 Y63.558 E12.18884
G1 X164.045 Y64.263 E12.20078
G1 X164.219 Y64.991 E12.21273
G1 X164.314 Y65.733 E12.22467
G1 X164.333 Y66.237 E12.23273
G1 X164.45 Y129.62 E13.24463
G1 X164.411 Y130.367 E13.25657
G1 X164.293 Y131.106 E13.26852
G1 X164.097 Y131.828 E13.28046
G1 X163.825 Y132.524 E13.29239
G1 X163.48 Y133.188 E13.30434
G1 X163.066 Y133.811 E13.31628
G1 X162.4 Y134.583 E13.33256
G1 X162.283 Y134.7 E13.3352
G1 X161.726 Y135.2 E13.34715
G1 X161.12 Y135.637 E13.35908
G1 X160.47 Y136.008 E13.37103
G1 X159.784 Y136.307 E13.38297
G1 X159.07 Y136.531 E13.39492
G1 X158.337 Y136.678 E13.40685
G1 X157.333 Y136.75 E13.42292
G1 X77.567 Y136.75 E14.69638
G1 X76.82 Y136.71 E14.70832
G1 X76.082 Y136.591 E14.72025
G1 X75.36 Y136.393 E14.73221
G1 X74.664 Y136.12 E14.74414
G1 X74.001 Y135.773 E14.75609
G1 X73.378 Y135.358 E14.76804
G1 X72.617 Y134.7 E14.7841
G1 X72.5 Y134.583 E14.78674
G1 X72 Y134.026 E14.79869
G1 X71.563 Y133.42 E14.81062
G1 X71.192 Y132.77 E14.82257
G1 X70.893 Y132.084 E14.83452
G1 X70.669 Y131.37 E14.84646
G1 X70.522 Y130.637 E14.8584
G1 X70.45 Y129.633 E14.87447
G1 X70.45 Y66.367 E15.8845
G1 X70.49 Y65.62 E15.89644
G1 X70.609 Y64.882 E15.90838
G1 X70.807 Y64.16 E15.92033
G1 X71.08 Y63.464 E15.93227
G1 X71.427 Y62.801 E15.94421
G1 X71.842 Y62.178 E15.95616
G0 F9000 X72.239 Y62.317
G1 F3000 X72.783 Y61.7 E15.9693
G1 X72.9 Y61.583 E15.97194
G1 X73.441 Y61.099 E15.98353
G1 X74.032 Y60.676 E15.99513
G1 X74.666 Y60.322 E16.00672
G1 X75.335 Y60.039 E16.01832
G1 X76.031 Y59.831 E16.02992
G1 X76.746 Y59.701 E16.04152
G1 X77.567 Y59.65 E16.05465
G1 X157.333 Y59.65 E17.3281
G1 X158.058 Y59.69 E17.3397
G1 X158.775 Y59.809 E17.3513
G1 X159.474 Y60.007 E17.3629
G1 X160.147 Y60.28 E17.37449
G1 X160.786 Y60.625 E17.38609
G1 X161.383 Y61.039 E17.39768
G1 X161.931 Y61.515 E17.40927
G1 X162.424 Y62.049 E17.42088
G1 X162.854 Y62.634 E17.43247
G1 X163.218 Y63.263 E17.44407
G1 X163.511 Y63.928 E17.45567
G1 X163.729 Y64.621 E17.46727
G1 X163.869 Y65.333 E17.47885
G1 X163.933 Y66.238 E17.49334
G1 X164.05 Y129.621 E18.50524
G1 X164.011 Y130.346 E18.51683
G1 X163.893 Y131.063 E18.52843
G1 X163.697 Y131.762 E18.54002
G1 X163.425 Y132.436 E18.55163
G1 X163.081 Y133.075 E18.56321
G1 X162.669 Y133.673 E18.5748
G1 X162.117 Y134.3 E18.58814
G1 X162 Y134.417 E18.59078
G1 X161.459 Y134.901 E18.60237
G1 X160.868 Y135.324 E18.61397
G1 X160.234 Y135.678 E18.62557
G1 X159.565 Y135.961 E18.63716
G1 X158.869 Y136.169 E18.64876
G1 X158.154 Y136.299 E18.66036
G1 X157.333 Y136.35 E18.6735
G1 X77.567 Y136.35 E19.94695
G1 X76.842 Y136.31 E19.95854
G1 X76.125 Y136.191 E19.97014
G1 X75.426 Y135.993 E19.98174
G1 X74.753 Y135.72 E19.99334
G1 X74.114 Y135.375 E20.00493
G1 X73.517 Y134.961 E20.01653
G1 X72.9 Y134.417 E20.02966
G1 X72.783 Y134.3 E20.0323
G1 X72.299 Y133.759 E20.04389
G1 X71.876 Y133.168 E20.0555
G1 X71.522 Y132.534 E20.06709
G1 X71.239 Y131.865 E20.07869
G1 X71.031 Y131.169 E20.09028
G1 X70.901 Y130.454 E20.10188
G1 X70.85 Y129.633 E20.11502
G1 X70.85 Y66.367 E21.12505
G1 X70.89 Y65.642 E21.13664
G1 X71.009 Y64.925 E21.14825
G1 X71.207 Y64.226 E21.15984
G1 X71.48 Y63.553 E21.17144
G1 X71.825 Y62.914 E21.18303
G1 X72.239 Y62.317 E21.19463
G0 F9000 X72.635 Y62.461
G1 F3000 X73.066 Y61.983 E21.20491
G1 X73.183 Y61.866 E21.20755
G1 X73.708 Y61.397 E21.21879
G1 X74.283 Y60.991 E21.23002
G1 X74.901 Y60.653 E21.24127
G1 X75.552 Y60.386 E21.2525
G1 X76.23 Y60.196 E21.26374
G1 X76.925 Y60.083 E21.27499
G1 X77.567 Y60.05 E21.28525
G1 X157.333 Y60.05 E22.5587
G1 X158.036 Y60.09 E22.56994
G1 X158.73 Y60.209 E22.58118
G1 X159.405 Y60.407 E22.59241
G1 X160.054 Y60.679 E22.60365
G1 X160.668 Y61.024 E22.61489
G1 X161.239 Y61.435 E22.62612
G1 X161.76 Y61.909 E22.63737
G1 X162.224 Y62.439 E22.64862
G1 X162.624 Y63.018 E22.65985
G1 X162.956 Y63.639 E22.67109
G1 X163.216 Y64.293 E22.68233
G1 X163.4 Y64.973 E22.69357
G1 X163.506 Y65.669 E22.70481
G1 X163.533 Y66.239 E22.71392
G1 X163.65 Y129.622 E23.72583
G1 X163.611 Y130.324 E23.73705
G1 X163.493 Y131.018 E23.74829
G1 X163.297 Y131.695 E23.75954
G1 X163.026 Y132.344 E23.77077
G1 X162.682 Y132.959 E23.78202
G1 X162.272 Y133.531 E23.79326
G1 X161.834 Y134.017 E23.8037
G1 X161.717 Y134.134 E23.80634
G1 X161.192 Y134.603 E23.81758
G1 X160.617 Y135.009 E23.82882
G1 X159.999 Y135.347 E23.84007
G1 X159.348 Y135.614 E23.8513
G1 X158.67 Y135.804 E23.86254
G1 X157.975 Y135.917 E23.87378
G1 X157.333 Y135.95 E23.88404
G1 X77.567 Y135.95 E25.1575
G1 X76.864 Y135.91 E25.16874
G1 X76.17 Y135.791 E25.17998
G1 X75.495 Y135.593 E25.19121
G1 X74.846 Y135.321 E25.20244
G1 X74.232 Y134.976 E25.21369
G1 X73.661 Y134.565 E25.22492
G1 X73.183 Y134.134 E25.2352
G1 X73.066 Y134.017 E25.23784
G1 X72.597 Y133.492 E25.24908
G1 X72.191 Y132.917 E25.26031
G1 X71.853 Y132.299 E25.27156
G1 X71.586 Y131.648 E25.28279
G1 X71.396 Y130.97 E25.29403
G1 X71.283 Y130.275 E25.30527
G1 X71.25 Y129.633 E25.31554
G1 X71.25 Y66.367 E26.32557
G1 X71.29 Y65.664 E26.33681
G1 X71.409 Y64.97 E26.34805
G1 X71.607 Y64.295 E26.35928
G1 X71.879 Y63.646 E26.37052
G1 X72.224 Y63.032 E26.38176
G1 X72.635 Y62.461 E26.39299
G0 F9000 X73.032 Y62.609
G1 F3000 X73.349 Y62.266 E26.40045
G1 X73.466 Y62.149 E26.40309
G1 X73.975 Y61.696 E26.41397
G1 X74.533 Y61.307 E26.42483
G1 X75.133 Y60.985 E26.4357
G1 X75.767 Y60.736 E26.44658
G1 X76.426 Y60.563 E26.45745
G1 X77.1 Y60.469 E26.46832
G1 X77.567 Y60.45 E26.47578
G1 X157.333 Y60.45 E27.74923
G1 X158.013 Y60.49 E27.76011
G1 X158.683 Y60.609 E27.77097
G1 X159.335 Y60.806 E27.78185
G1 X159.959 Y61.078 E27.79271
G1 X160.547 Y61.422 E27.80359
G1 X161.091 Y61.832 E27.81446
G1 X161.582 Y62.303 E27.82533
G1 X162.016 Y62.828 E27.8362
G1 X162.385 Y63.4 E27.84707
G1 X162.684 Y64.012 E27.85794
G1 X162.909 Y64.654 E27.8688
G1 X163.058 Y65.319 E27.87968
G1 X163.133 Y66.239 E27.89442
G1 X163.25 Y129.622 E28.90632
G1 X163.211 Y130.302 E28.9172
G1 X163.093 Y130.973 E28.92807
G1 X162.897 Y131.625 E28.93894
G1 X162.626 Y132.249 E28.9498
G1 X162.284 Y132.838 E28.96068
G1 X161.875 Y133.382 E28.97154
G1 X161.551 Y133.734 E28.97918
G1 X161.434 Y133.851 E28.98182
G1 X160.925 Y134.304 E28.9927
G1 X160.367 Y134.693 E29.00356
G1 X159.767 Y135.015 E29.01443
G1 X159.133 Y135.264 E29.0253
G1 X158.474 Y135.437 E29.03618
G1 X157.8 Y135.531 E29.04705
G1 X157.333 Y135.55 E29.05451
G1 X77.567 Y135.55 E30.32796
G1 X76.887 Y135.51 E30.33884
G1 X76.217 Y135.391 E30.3497
G1 X75.565 Y135.194 E30.36057
G1 X74.941 Y134.922 E30.37144
G1 X74.353 Y134.578 E30.38232
G1 X73.809 Y134.168 E30.39319
G1 X73.466 Y133.851 E30.40065
G1 X73.349 Y133.734 E30.40329
G1 X72.896 Y133.225 E30.41417
G1 X72.507 Y132.667 E30.42503
G1 X72.185 Y132.067 E30.4359
G1 X71.936 Y131.433 E30.44677
G1 X71.763 Y130.774 E30.45765
G1 X71.669 Y130.1 E30.46852
G1 X71.65 Y129.633 E30.47598
G1 X71.65 Y66.367 E31.48601
G1 X71.69 Y65.687 E31.49689
G1 X71.809 Y65.017 E31.50775
G1 X72.006 Y64.365 E31.51862
G1 X72.278 Y63.741 E31.52949
G1 X72.622 Y63.153 E31.54037
G1 X73.032 Y62.609 E31.55124
G0 F9000 X73.632 Y62.549
G1 F3000 X73.749 Y62.432 E31.55388
G1 X74.241 Y61.996 E31.56438
G1 X74.782 Y61.624 E31.57486
G1 X75.364 Y61.32 E31.58534
G1 X75.979 Y61.089 E31.59583
G1 X76.618 Y60.934 E31.60633
G1 X77.567 Y60.85 E31.62154
G1 X157.333 Y60.85 E32.89499
G1 X157.989 Y60.89 E32.90548
G1 X158.635 Y61.009 E32.91597
G1 X159.262 Y61.206 E32.92646
G1 X159.86 Y61.478 E32.93695
G1 X160.421 Y61.82 E32.94744
G1 X160.936 Y62.228 E32.95793
G1 X161.398 Y62.695 E32.96842
G1 X161.799 Y63.215 E32.9789
G1 X162.135 Y63.779 E32.98938
G1 X162.399 Y64.381 E32.99988
G1 X162.589 Y65.01 E33.01037
G1 X162.7 Y65.657 E33.02085
G1 X162.733 Y66.24 E33.03017
G1 X162.85 Y129.623 E34.04207
G1 X162.811 Y130.279 E34.05256
G1 X162.693 Y130.925 E34.06305
G1 X162.497 Y131.552 E34.07353
G1 X162.227 Y132.151 E34.08402
G1 X161.886 Y132.712 E34.09451
G1 X161.268 Y133.451 E34.10989
G1 X161.151 Y133.568 E34.11253
G1 X160.659 Y134.004 E34.12302
G1 X160.118 Y134.376 E34.1335
G1 X159.536 Y134.68 E34.14399
G1 X158.921 Y134.911 E34.15447
G1 X158.282 Y135.066 E34.16497
G1 X157.333 Y135.15 E34.18018
G1 X77.567 Y135.15 E35.45364
G1 X76.911 Y135.11 E35.46413
G1 X76.265 Y134.991 E35.47461
G1 X75.638 Y134.794 E35.48511
G1 X75.04 Y134.522 E35.4956
G1 X74.479 Y134.18 E35.50608
G1 X73.749 Y133.568 E35.52129
G1 X73.632 Y133.451 E35.52393
G1 X73.196 Y132.959 E35.53443
G1 X72.824 Y132.418 E35.54491
G1 X72.52 Y131.836 E35.55539
G1 X72.289 Y131.221 E35.56588
G1 X72.134 Y130.582 E35.57638
G1 X72.05 Y129.633 E35.59159
G1 X72.05 Y66.367 E36.60162
G1 X72.09 Y65.711 E36.61211
G1 X72.209 Y65.065 E36.6226
G1 X72.406 Y64.438 E36.63309
G1 X72.678 Y63.84 E36.64358
G1 X73.02 Y63.279 E36.65407
G1 X73.632 Y62.549 E36.66928
G0 F9000 X73.914 Y62.831
G1 F3000 X74.031 Y62.714 E36.67192
G1 X74.506 Y62.297 E36.68201
G1 X75.029 Y61.942 E36.6921
G1 X75.593 Y61.656 E36.7022
G1 X76.188 Y61.444 E36.71228
G1 X76.806 Y61.308 E36.72239
G1 X77.567 Y61.25 E36.73457
G1 X157.333 Y61.25 E38.00802
G1 X157.964 Y61.29 E38.01812
G1 X158.585 Y61.409 E38.02821
G1 X159.185 Y61.606 E38.03829
G1 X159.757 Y61.877 E38.0484
G1 X160.289 Y62.217 E38.05848
G1 X160.774 Y62.623 E38.06858
G1 X161.204 Y63.086 E38.07866
G1 X161.573 Y63.6 E38.08877
G1 X161.873 Y64.156 E38.09885
G1 X162.101 Y64.745 E38.10894
G1 X162.253 Y65.359 E38.11903
G1 X162.333 Y66.241 E38.13317
G1 X162.45 Y129.624 E39.14508
G1 X162.411 Y130.255 E39.15517
G1 X162.293 Y130.876 E39.16526
G1 X162.098 Y131.477 E39.17535
G1 X161.828 Y132.049 E39.18545
G1 X161.488 Y132.582 E39.19554
G1 X160.986 Y133.169 E39.20787
G1 X160.869 Y133.286 E39.21051
G1 X160.394 Y133.703 E39.2206
G1 X159.871 Y134.058 E39.23069
G1 X159.307 Y134.344 E39.24079
G1 X158.712 Y134.556 E39.25087
G1 X158.094 Y134.692 E39.26098
G1 X157.333 Y134.75 E39.27316
G1 X77.567 Y134.75 E40.54661
G1 X76.936 Y134.71 E40.55671
G1 X76.315 Y134.591 E40.5668
G1 X75.715 Y134.394 E40.57688
G1 X75.143 Y134.123 E40.58699
G1 X74.611 Y133.783 E40.59707
G1 X74.031 Y133.286 E40.60926
G1 X73.914 Y133.169 E40.6119
G1 X73.497 Y132.694 E40.622
G1 X73.142 Y132.171 E40.63209
G1 X72.856 Y131.607 E40.64218
G1 X72.644 Y131.012 E40.65227
G1 X72.508 Y130.394 E40.66237
G1 X72.45 Y129.633 E40.67455
G1 X72.45 Y66.367 E41.68459
G1 X72.49 Y65.736 E41.69468
G1 X72.609 Y65.115 E41.70478
G1 X72.806 Y64.515 E41.71486
G1 X73.077 Y63.943 E41.72496
G1 X73.417 Y63.411 E41.73504
G1 X73.914 Y62.831 E41.74724
G0 F9000 X73.815 Y63.548
G1 F3000 X74.197 Y63.114 E41.75647
G1 X74.314 Y62.997 E41.75911
G1 X74.77 Y62.598 E41.76878
G1 X75.275 Y62.262 E41.77847
G1 X75.819 Y61.995 E41.78814
